icons/circle/48/sage-notebook.svg

<svg viewBox="0 0 48 48" xmlns="http://www.w3.org/2000/svg">
 <defs>
  <linearGradient id="linearGradient3764" x1="1" x2="47" gradientTransform="matrix(0 -1 1 0 -1.5e-6 48)" gradientUnits="userSpaceOnUse">
   <stop style="stop-color:#6767ed" offset="0"/>
   <stop style="stop-color:#7979ef" offset="1"/>
  </linearGradient>
 </defs>
 <path d="m36.31 5c5.859 4.062 9.688 10.831 9.688 18.5 0 12.426-10.07 22.5-22.5 22.5-7.669 0-14.438-3.828-18.5-9.688 1.037 1.822 2.306 3.499 3.781 4.969 4.085 3.712 9.514 5.969 15.469 5.969 12.703 0 23-10.298 23-23 0-5.954-2.256-11.384-5.969-15.469-1.469-1.475-3.147-2.744-4.969-3.781zm4.969 3.781c3.854 4.113 6.219 9.637 6.219 15.719 0 12.703-10.297 23-23 23-6.081 0-11.606-2.364-15.719-6.219 4.16 4.144 9.883 6.719 16.219 6.719 12.703 0 23-10.298 23-23 0-6.335-2.575-12.06-6.719-16.219z" style="opacity:.05"/>
 <path d="m41.28 8.781c3.712 4.085 5.969 9.514 5.969 15.469 0 12.703-10.297 23-23 23-5.954 0-11.384-2.256-15.469-5.969 4.113 3.854 9.637 6.219 15.719 6.219 12.703 0 23-10.298 23-23 0-6.081-2.364-11.606-6.219-15.719z" style="opacity:.1"/>
 <path d="m31.25 2.375c8.615 3.154 14.75 11.417 14.75 21.13 0 12.426-10.07 22.5-22.5 22.5-9.708 0-17.971-6.135-21.12-14.75a23 23 0 0 0 44.875-7 23 23 0 0 0-16-21.875z" style="opacity:.2"/>
 <path d="m24 1c12.703 0 23 10.297 23 23s-10.297 23-23 23-23-10.297-23-23 10.297-23 23-23z" style="fill:url(#linearGradient3764)"/>
 <path d="m40.03 7.531c3.712 4.084 5.969 9.514 5.969 15.469 0 12.703-10.297 23-23 23-5.954 0-11.384-2.256-15.469-5.969 4.178 4.291 10.01 6.969 16.469 6.969 12.703 0 23-10.298 23-23 0-6.462-2.677-12.291-6.969-16.469z" style="opacity:.1"/>
 <path d="m25 11a2 2 0 0 0-2 2 2 2 0 0 0 0 0.02l-8.02 4.738a2 2 0 0 0-0.98-0.258 2 2 0 0 0-2 2 2 2 0 0 0 1 1.73v7.541a2 2 0 0 0-1 1.729 2 2 0 0 0 2 2 2 2 0 0 0 0.98-0.26l8.02 4.74a2 2 0 0 0 0 0.02 2 2 0 0 0 2 2 2 2 0 0 0 2-2 2 2 0 0 0 0-0.02l8.02-4.738a2 2 0 0 0 0.98 0.258 2 2 0 0 0 2-2 2 2 0 0 0-1-1.73v-7.541a2 2 0 0 0 1-1.729 2 2 0 0 0-2-2 2 2 0 0 0-0.98 0.26l-8.02-4.74a2 2 0 0 0 0-0.02 2 2 0 0 0-2-2m1 3.752 7.91 4.674-7.811 3.906a2 2 0 0 0-0.099-0.062v-8.518zm-2 2e-3v8.518a2 2 0 0 0-0.102 0.061l-7.808-3.907 7.91-4.672m-8.9 6.416 7.666 3.83-7.666 3.832a2 2 0 0 0-0.1-0.062v-7.541a2 2 0 0 0 0.102-0.061zm19.797 0a2 2 0 0 0 0.103 0.06v7.541a2 2 0 0 0-1 1.729 2 2 0 0 0 0 0.02l-8 4.727v-8.518a2 2 0 0 0 0.994-1.607l7.904-3.953zm-10.998 5.5a2 2 0 0 0 0.101 0.06v8.518l-7.91-4.674 7.811-3.906z" solid-color="#000000" style="color-rendering:auto;fill-rule:evenodd;image-rendering:auto;opacity:.1;shape-rendering:auto" isolation="auto" mix-blend-mode="normal" white-space="normal"/>
 <path d="m24 10a2 2 0 0 0-2 2 2 2 0 0 0 0 0.02l-8.018 4.738a2 2 0 0 0-0.982-0.258 2 2 0 0 0-2 2 2 2 0 0 0 1 1.73v7.541a2 2 0 0 0-1 1.729 2 2 0 0 0 2 2 2 2 0 0 0 0.98-0.26l8.02 4.74a2 2 0 0 0 0 0.02 2 2 0 0 0 2 2 2 2 0 0 0 2-2 2 2 0 0 0 0-0.02l8.02-4.74a2 2 0 0 0 0.98 0.26 2 2 0 0 0 2-2 2 2 0 0 0-1-1.73v-7.541a2 2 0 0 0 1-1.729 2 2 0 0 0-2-2 2 2 0 0 0-0.98 0.26l-8.02-4.74a2 2 0 0 0 0-0.02 2 2 0 0 0-2-2zm1 3.752 7.91 4.674-7.81 3.906a2 2 0 0 0-0.1-0.062v-8.518zm-2 2e-3v8.517a2 2 0 0 0-0.102 0.061l-7.808-3.906 7.91-4.672zm-8.9 6.416 7.666 3.83-7.666 3.832a2 2 0 0 0-0.1-0.062v-7.541a2 2 0 0 0 0.1-0.059zm19.798 0a2 2 0 0 0 0.102 0.06v7.541a2 2 0 0 0-1 1.729 2 2 0 0 0 0 0.02l-8 4.73v-8.521a2 2 0 0 0 0.994-1.609l7.904-3.95zm-10.998 5.498a2 2 0 0 0 0.1 0.062v8.52l-7.91-4.676 7.81-3.906z" solid-color="#000000" style="color-rendering:auto;fill-rule:evenodd;fill:#f3f3f9;image-rendering:auto;shape-rendering:auto" isolation="auto" mix-blend-mode="normal" white-space="normal"/>
</svg>

<svg xmlns="http://www.w3.org/2000/svg" viewBox="0 0 48 48">
 <defs>
  <linearGradient id="linearGradient3764" x1="1" x2="47" gradientUnits="userSpaceOnUse" gradientTransform="matrix(0,-1,1,0,-1.5e-6,47.999998)">
   <stop style="stop-color:#6767ed;stop-opacity:1"/>
   <stop offset="1" style="stop-color:#7979ef;stop-opacity:1"/>
  </linearGradient>
 </defs>
 <g>
  <path d="m 36.31 5 c 5.859 4.062 9.688 10.831 9.688 18.5 c 0 12.426 -10.07 22.5 -22.5 22.5 c -7.669 0 -14.438 -3.828 -18.5 -9.688 c 1.037 1.822 2.306 3.499 3.781 4.969 c 4.085 3.712 9.514 5.969 15.469 5.969 c 12.703 0 23 -10.298 23 -23 c 0 -5.954 -2.256 -11.384 -5.969 -15.469 c -1.469 -1.475 -3.147 -2.744 -4.969 -3.781 z m 4.969 3.781 c 3.854 4.113 6.219 9.637 6.219 15.719 c 0 12.703 -10.297 23 -23 23 c -6.081 0 -11.606 -2.364 -15.719 -6.219 c 4.16 4.144 9.883 6.719 16.219 6.719 c 12.703 0 23 -10.298 23 -23 c 0 -6.335 -2.575 -12.06 -6.719 -16.219 z" style="opacity:0.05"/>
  <path d="m 41.28 8.781 c 3.712 4.085 5.969 9.514 5.969 15.469 c 0 12.703 -10.297 23 -23 23 c -5.954 0 -11.384 -2.256 -15.469 -5.969 c 4.113 3.854 9.637 6.219 15.719 6.219 c 12.703 0 23 -10.298 23 -23 c 0 -6.081 -2.364 -11.606 -6.219 -15.719 z" style="opacity:0.1"/>
  <path d="m 31.25 2.375 c 8.615 3.154 14.75 11.417 14.75 21.13 c 0 12.426 -10.07 22.5 -22.5 22.5 c -9.708 0 -17.971 -6.135 -21.12 -14.75 a 23 23 0 0 0 44.875 -7 a 23 23 0 0 0 -16 -21.875 z" style="opacity:0.2"/>
 </g>
 <g>
  <path d="m 24 1 c 12.703 0 23 10.297 23 23 c 0 12.703 -10.297 23 -23 23 -12.703 0 -23 -10.297 -23 -23 0 -12.703 10.297 -23 23 -23 z" style="fill:url(#linearGradient3764);fill-opacity:1"/>
 </g>
 <g>
  <path d="m 40.03 7.531 c 3.712 4.084 5.969 9.514 5.969 15.469 0 12.703 -10.297 23 -23 23 c -5.954 0 -11.384 -2.256 -15.469 -5.969 4.178 4.291 10.01 6.969 16.469 6.969 c 12.703 0 23 -10.298 23 -23 0 -6.462 -2.677 -12.291 -6.969 -16.469 z" style="opacity:0.1"/>
 </g>
 <path d="m 25 11 a 2 2 0 0 0 -2 2 2 2 0 0 0 0 0.02 l -8.02 4.738 A 2 2 0 0 0 14 17.5 a 2 2 0 0 0 -2 2 2 2 0 0 0 1 1.73 l 0 7.541 A 2 2 0 0 0 12 30.5 a 2 2 0 0 0 2 2 2 2 0 0 0 0.98 -0.26 L 23 36.98 A 2 2 0 0 0 23 37 a 2 2 0 0 0 2 2 2 2 0 0 0 2 -2 2 2 0 0 0 0 -0.02 l 8.02 -4.738 A 2 2 0 0 0 36 32.5 a 2 2 0 0 0 2 -2 2 2 0 0 0 -1 -1.73 l 0 -7.541 A 2 2 0 0 0 38 19.5 a 2 2 0 0 0 -2 -2 2 2 0 0 0 -0.98 0.26 L 27 13.02 A 2 2 0 0 0 27 13 2 2 0 0 0 25 11 m 1 3.752 7.91 4.674 -7.811 3.906 A 2 2 0 0 0 26 23.27 l 0 -8.518 z m -2 0.002 0 8.518 a 2 2 0 0 0 -0.102 0.061 L 16.09 19.426 24 14.754 M 15.1 21.17 22.766 25 15.1 28.832 A 2 2 0 0 0 15 28.77 l 0 -7.541 a 2 2 0 0 0 0.102 -0.061 z m 19.797 0 A 2 2 0 0 0 35 21.23 l 0 7.541 A 2 2 0 0 0 34 30.5 a 2 2 0 0 0 0 0.02 l -8 4.727 0 -8.518 a 2 2 0 0 0 0.994 -1.607 l 7.904 -3.953 z m -10.998 5.5 A 2 2 0 0 0 24 26.73 l 0 8.518 -7.91 -4.674 7.811 -3.906 z" mix-blend-mode="normal" isolation="auto" white-space="normal" solid-opacity="1" solid-color="#000000" style="visibility:visible;shape-rendering:auto;color-interpolation-filters:linearRGB;fill:#000;opacity:0.1;image-rendering:auto;fill-opacity:1;stroke:none;display:inline;color:#000;fill-rule:evenodd;color-rendering:auto;color-interpolation:sRGB"/>
 <path d="M 24 10 A 2 2 0 0 0 22 12 A 2 2 0 0 0 22 12.02 L 13.982 16.758 A 2 2 0 0 0 13 16.5 A 2 2 0 0 0 11 18.5 A 2 2 0 0 0 12 20.23 L 12 27.771 A 2 2 0 0 0 11 29.5 A 2 2 0 0 0 13 31.5 A 2 2 0 0 0 13.98 31.24 L 22 35.98 A 2 2 0 0 0 22 36 A 2 2 0 0 0 24 38 A 2 2 0 0 0 26 36 A 2 2 0 0 0 26 35.98 L 34.02 31.24 A 2 2 0 0 0 35 31.5 A 2 2 0 0 0 37 29.5 A 2 2 0 0 0 36 27.77 L 36 20.229 A 2 2 0 0 0 37 18.5 A 2 2 0 0 0 35 16.5 A 2 2 0 0 0 34.02 16.76 L 26 12.02 A 2 2 0 0 0 26 12 A 2 2 0 0 0 24 10 z M 25 13.752 L 32.91 18.426 L 25.1 22.332 A 2 2 0 0 0 25 22.27 L 25 13.752 z M 23 13.754 L 23 22.271 A 2 2 0 0 0 22.898 22.332 L 15.09 18.426 L 23 13.754 z M 14.1 20.17 L 21.766 24 L 14.1 27.832 A 2 2 0 0 0 14 27.77 L 14 20.229 A 2 2 0 0 0 14.1 20.17 z M 33.898 20.17 A 2 2 0 0 0 34 20.23 L 34 27.771 A 2 2 0 0 0 33 29.5 A 2 2 0 0 0 33 29.52 L 25 34.25 L 25 25.729 A 2 2 0 0 0 25.994 24.12 L 33.898 20.17 z M 22.9 25.668 A 2 2 0 0 0 23 25.73 L 23 34.25 L 15.09 29.574 L 22.9 25.668 z" mix-blend-mode="normal" isolation="auto" white-space="normal" solid-opacity="1" solid-color="#000000" style="visibility:visible;shape-rendering:auto;color-interpolation-filters:linearRGB;fill:#f3f3f9;opacity:1;image-rendering:auto;fill-opacity:1;stroke:none;display:inline;color:#000;fill-rule:evenodd;color-rendering:auto;color-interpolation:sRGB"/>
</svg>
